!! 00000] TT[WS
!!!OTL: Zhu yitian niangjia shang yitian tian
!!!ARE: Asia, China, Shanxi Hequ
!! Ethnic Group: Han
!! WII, 3 (1)
!!!SCT: J0404
!!!YEM: Copyright 1995, estate of Helmut Schaffrath.
**kern
*ICvox
*Ivox
*M2/4
*k[f#]
*G:
{8ee
4ee
16b
16a
=1
8g
8e
16dd
8dd
16b
=2
16b
16dd
16a
16g
8.e
16a
=3
2e}
=4
{8ee
4ee
16b
16a
=5
8g
8e
16dd
8dd
16b
=6
16b
16dd
16a
16g
8.e
16g
=7
2a}
==
!!!AGN: Shange, Shanqu. Qingge, Aisu
!!!ONB: ESAC (Essen Associative Code) Database: CHINA
!!!AMT: simple duple
!!!AIN: vox
!!!EED: Helmut Schaffrath
!!!EEV: 1.0
*-
